symbols/web/folder_copy/materialsymbolssharp/folder_copy_wght600grad200fill1_20px.svg

<svg xmlns="http://www.w3.org/2000/svg" height="20" width="20"><path d="M.042 18.417v-13h2.646v10.354h14.437v2.646Zm4.396-4.396V.083H10l2.271 2.271h7.687v11.667Z"/></svg>

<svg xmlns="http://www.w3.org/2000/svg" height="20" width="20"><path d="M0.042 18.417V5.417H2.688V15.771H17.125V18.417ZM4.438 14.021V0.083H10L12.271 2.354H19.958V14.021Z"/></svg>
